X:3
T:Autumn Leaves
C:Joseph Kosma
L:1/4
M:C
I:linebreak $
K:Bb
"Gm" z G A B ||"Cm" e4 |"F7" z F G A |"Bb" d2 d2 |$"Eb" z E F G |"Aø" c4 ||1"D7" z D =E ^F |
"Gm" B4 :|2$"D7" z A c B |"Gm" G4 || z2 ^F G |"Aø" A D A2 |$"D7" z A G A |"Gm" B4 |
"C7" z B A B |"Cm" c2 z F |$"F7" f2 z e |"Bb" d4 |"Eb" z2 ^c d |"Aø" e e c c |$"D7" A2 z e |
"Gm" d2"Gb7" d2 |"Fm" z2"E7" z G |"Eb" c2 z B |$"D7" A2 B D |"Gm" G4 |]

